src/topics/icons/buddy.svg

<?xml version="1.0" encoding="UTF-8" standalone="no"?>
<svg width="256px" height="274px" viewBox="0 0 256 274" version="1.1" xmlns="http://www.w3.org/2000/svg" xmlns:xlink="http://www.w3.org/1999/xlink" preserveAspectRatio="xMidYMid">
	<g>
		<path d="M233.6468,181.9252 L233.6468,152.1202 C246.9528,146.2662 255.9998,132.9602 255.9998,118.0582 C255.9998,102.0912 245.8878,88.2532 230.9858,82.9312 C219.8088,35.0312 176.6988,0.4362 127.2018,0.4362 C77.1728,0.4362 34.0628,35.5632 23.4178,83.9962 C9.0478,89.3182 -0.0002,103.1562 -0.0002,118.5902 C-0.0002,132.9602 7.9838,145.7342 20.7568,152.1202 L20.7568,182.9902 C8.5158,189.9082 1.0648,203.2142 1.0648,217.5842 C1.0648,239.4052 18.6278,257.5012 39.3848,257.5012 L96.3328,257.5012 C102.7198,267.6132 113.8958,274.0002 126.6698,274.0002 C139.4428,274.0002 150.6198,268.1452 157.0058,257.5012 L215.0188,257.5012 C235.7758,257.5012 253.3388,239.4052 253.3388,217.5842 C253.3388,202.6822 245.8878,188.8442 233.6468,181.9252" fill="#FFFFFF"></path>
		<path d="M212.5933,102.6067 C212.6283,102.5947 212.6643,102.5867 212.6993,102.5737 C212.7033,102.6687 212.7103,102.7627 212.7143,102.8577 C212.6743,102.7737 212.6333,102.6907 212.5933,102.6067 M207.6643,93.5647 C195.6063,74.0647 176.7333,59.2737 154.3453,52.4727 L154.3453,25.1347 C184.0323,35.0607 206.4473,60.7387 211.6473,92.3277 C210.2833,92.6647 208.9313,93.0297 207.6643,93.5647 M106.4453,50.5267 L106.4453,23.2647 C113.0953,21.6077 120.0303,20.6607 127.2023,20.6607 C132.8533,20.6607 138.3603,21.2427 143.7003,22.2847 L143.7003,49.8967 C138.1733,48.8977 132.4913,48.3367 126.6693,48.3367 C119.7193,48.3367 112.9633,49.1157 106.4453,50.5267 M46.0193,92.9967 C44.9623,92.6367 43.9193,92.2467 42.8033,92.0177 C47.8413,62.0927 68.3313,37.4897 95.8003,26.6497 L95.8003,53.4667 C75.0193,60.5917 57.5093,74.7007 46.0193,92.9967 M31.9333,106.3497 L31.9333,133.5827 C31.8963,133.9357 31.8853,134.2937 31.8523,134.6477 C25.0343,132.3177 20.2243,125.8327 20.2243,118.5907 C20.2243,110.8917 25.4083,104.6407 32.1293,102.4547 C32.0773,103.7567 31.9333,105.0337 31.9333,106.3497 M235.2433,118.5907 C235.2433,126.6847 229.8983,133.2027 222.4703,135.0477 L222.4703,106.3497 C222.4703,104.9037 222.3173,103.4977 222.2543,102.0677 C229.7983,103.8357 235.2433,110.4157 235.2433,118.5907 M222.4703,188.7717 L222.4703,144.2517 C235.2703,142.2527 244.8233,131.4977 244.8233,118.0587 C244.8233,104.1957 234.6483,93.2257 221.2403,91.7447 C214.2143,46.0287 174.9113,11.0807 127.2023,11.0807 C79.4553,11.0807 40.1283,46.0817 33.1473,91.8497 C20.2733,93.7887 10.6443,104.5677 10.6443,118.0587 C10.6443,130.8777 19.7213,141.2837 31.4013,143.9567 L31.4013,188.9217 C19.6633,192.5017 11.1773,204.2097 11.1773,217.0517 C11.1773,232.4867 23.4183,246.3247 38.8523,246.3247 L102.7193,246.3247 C106.4453,256.9687 116.0253,262.8237 126.6693,262.8237 C137.3143,262.8237 146.8943,257.5017 150.6193,246.3247 L215.0193,246.3247 C230.4533,246.3247 242.6943,232.4867 242.6943,217.0517 C242.6943,204.0167 234.4823,192.1557 222.4703,188.7717" fill="#475E93"></path>
		<path d="M127.2017,68.5612 C85.1557,68.5612 51.0937,102.6232 51.0937,144.6692 C51.0937,174.4742 75.0437,198.4242 104.8487,198.4242 L149.5547,198.4242 C179.3597,198.4242 203.3097,174.4742 203.3097,144.6692 C203.3097,103.1562 169.2477,68.5612 127.2017,68.5612" fill="#FEEEDF"></path>
		<path d="M127.734,71.7546 C87.285,71.7546 53.223,104.7526 53.223,145.7336 L53.223,168.0876 C53.223,127.6386 87.285,94.1076 127.734,94.1076 C168.183,94.1076 202.245,127.1056 202.245,168.0876 L202.245,145.7336 C202.245,104.7526 168.183,71.7546 127.734,71.7546" fill="#BBADB6"></path>
		<path d="M126.6695,173.4095 C115.4925,173.4095 106.4445,165.4265 106.4445,156.3785 C106.4445,155.3135 106.9775,153.7175 107.5095,153.1845 C108.5735,152.1205 110.1705,151.0565 112.2995,151.0565 L141.5715,151.0565 C145.8295,151.0565 147.4265,154.2495 147.4265,156.3785 C147.4265,165.4265 138.3785,173.4095 126.6695,173.4095" fill="#FFFFFF"></path>
		<path d="M127.2017,72.2868 C86.7527,72.2868 54.2867,105.2848 54.2867,145.2018 C54.2867,172.8768 77.1727,195.7628 104.8487,195.7628 L149.5547,195.7628 C177.2307,195.7628 200.1167,172.8768 200.1167,145.2018 C200.1167,104.7528 167.6507,72.2868 127.2017,72.2868 M149.5547,202.1498 L104.8487,202.1498 C73.4467,202.1498 47.9007,176.6028 47.9007,145.2018 C47.9007,101.5588 83.5597,65.8998 127.2017,65.8998 C170.8437,65.8998 206.5027,101.5588 206.5027,145.2018 C206.5027,176.6028 180.9567,202.1498 149.5547,202.1498 M93.1393,110.607 C98.1363,110.607 102.1873,114.658 102.1873,119.655 C102.1873,124.652 98.1363,128.703 93.1393,128.703 C88.1423,128.703 84.0913,124.652 84.0913,119.655 C84.0913,114.658 88.1423,110.607 93.1393,110.607 M159.1352,110.607 C164.1322,110.607 168.1832,114.658 168.1832,119.655 C168.1832,124.652 164.1322,128.703 159.1352,128.703 C154.1382,128.703 150.0872,124.652 150.0872,119.655 C150.0872,114.658 154.1382,110.607 159.1352,110.607 M141.5718,151.0561 L112.2998,151.0561 C108.5738,151.0561 106.4448,151.0561 105.3808,152.6531 C103.7838,154.2491 103.2518,155.3141 103.2518,157.4431 C103.2518,168.6191 113.8958,177.6671 126.6698,177.6671 C139.9748,177.6671 150.6198,169.6841 150.6198,158.5071 C150.6198,154.2491 147.4258,151.0561 141.5718,151.0561 M142.1038,155.8461 C144.7648,155.8461 144.2328,156.9101 144.2328,156.9101 C144.2328,164.3621 136.2498,170.2161 126.6698,170.2161 C117.0898,170.2161 109.6388,163.8291 109.6388,156.9101 C109.6388,156.9101 109.6388,155.8461 112.2998,155.8461 L143.7008,155.8461" fill="#475E93"></path>
		<path d="M172.4408,140.9438 C180.3768,140.9438 186.8108,147.3778 186.8108,155.3138 C186.8108,163.2498 180.3768,169.6838 172.4408,169.6838 C164.5048,169.6838 158.0708,163.2498 158.0708,155.3138 C158.0708,147.3778 164.5048,140.9438 172.4408,140.9438 Z M81.4304,140.9438 C89.3664,140.9438 95.8004,147.3778 95.8004,155.3138 C95.8004,163.2498 89.3664,169.6838 81.4304,169.6838 C73.4944,169.6838 67.0604,163.2498 67.0604,155.3138 C67.0604,147.3778 73.4944,140.9438 81.4304,140.9438 Z" fill="#FDCCCD"></path>
		<path d="M127.2019,207.4719 C120.2829,207.4719 114.4279,213.3259 114.4279,220.2459 L114.4279,233.0189 C114.4279,239.9379 120.2829,245.7919 127.2019,245.7919 C134.1209,245.7919 139.9749,240.4699 139.9749,233.0189 L139.9749,220.2459 C139.9749,213.3259 134.1209,207.4719 127.2019,207.4719" fill="#FFFFFF"></path>
	</g>
</svg>

<svg height="274" preserveAspectRatio="xMidYMid" viewBox="0 0 256 274" width="256" xmlns="http://www.w3.org/2000/svg"><path d="m233.6468 181.9252v-29.805c13.306-5.854 22.353-19.16 22.353-34.062 0-15.967-10.112-29.805-25.014-35.127-11.177-47.9-54.287-82.495-103.784-82.495-50.029 0-93.139 35.127-103.784 83.56-14.37 5.322-23.418 19.16-23.418 34.594 0 14.37 7.984 27.144 20.757 33.53v30.87c-12.241 6.918-19.692 20.224-19.692 34.594 0 21.821 17.563 39.917 38.32 39.917h56.948c6.387 10.112 17.563 16.499 30.337 16.499 12.773 0 23.95-5.855 30.336-16.499h58.013c20.757 0 38.32-18.096 38.32-39.917 0-14.902-7.451-28.74-19.692-35.659" fill="#fff"/><path d="m212.5933 102.6067c.035-.012.071-.02.106-.033.004.095.011.189.015.284-.04-.084-.081-.167-.121-.251m-4.929-9.042c-12.058-19.5-30.931-34.291-53.319-41.092v-27.338c29.687 9.926 52.102 35.604 57.302 67.193-1.364.337-2.716.702-3.983 1.237m-101.219-43.038v-27.262c6.65-1.657 13.585-2.604 20.757-2.604 5.651 0 11.158.582 16.498 1.624v27.612c-5.527-.999-11.209-1.56-17.031-1.56-6.95 0-13.706.779-20.224 2.19m-60.426 42.47c-1.057-.36-2.1-.75-3.216-.979 5.038-29.925 25.528-54.528 52.997-65.368v26.817c-20.781 7.125-38.291 21.234-49.781 39.53m-14.086 13.353v27.233c-.037.353-.048.711-.081 1.065-6.818-2.33-11.628-8.815-11.628-16.057 0-7.699 5.184-13.95 11.905-16.136-.052 1.302-.196 2.579-.196 3.895m203.31 12.241c0 8.094-5.345 14.612-12.773 16.457v-28.698c0-1.446-.153-2.852-.216-4.282 7.544 1.768 12.989 8.348 12.989 16.523m-12.773 70.181v-44.52c12.8-1.999 22.353-12.754 22.353-26.193 0-13.863-10.175-24.833-23.583-26.314-7.026-45.716-46.329-80.664-94.038-80.664-47.747 0-87.074 35.001-94.055 80.769-12.874 1.939-22.503 12.718-22.503 26.209 0 12.819 9.077 23.225 20.757 25.898v44.965c-11.738 3.58-20.224 15.288-20.224 28.13 0 15.435 12.241 29.273 27.675 29.273h63.867c3.726 10.644 13.306 16.499 23.95 16.499 10.645 0 20.225-5.322 23.95-16.499h64.4c15.434 0 27.675-13.838 27.675-29.273 0-13.035-8.212-24.896-20.224-28.28" fill="#475e93"/><path d="m127.2017 68.5612c-42.046 0-76.108 34.062-76.108 76.108 0 29.805 23.95 53.755 53.755 53.755h44.706c29.805 0 53.755-23.95 53.755-53.755 0-41.513-34.062-76.108-76.108-76.108" fill="#feeedf"/><path d="m127.734 71.7546c-40.449 0-74.511 32.998-74.511 73.979v22.354c0-40.449 34.062-73.98 74.511-73.98s74.511 32.998 74.511 73.98v-22.354c0-40.981-34.062-73.979-74.511-73.979" fill="#bbadb6"/><path d="m126.6695 173.4095c-11.177 0-20.225-7.983-20.225-17.031 0-1.065.533-2.661 1.065-3.194 1.064-1.064 2.661-2.128 4.79-2.128h29.272c4.258 0 5.855 3.193 5.855 5.322 0 9.048-9.048 17.031-20.757 17.031" fill="#fff"/><path d="m127.2017 72.2868c-40.449 0-72.915 32.998-72.915 72.915 0 27.675 22.886 50.561 50.562 50.561h44.706c27.676 0 50.562-22.886 50.562-50.561 0-40.449-32.466-72.915-72.915-72.915m22.353 129.863h-44.706c-31.402 0-56.948-25.547-56.948-56.948 0-43.643 35.659-79.302 79.301-79.302s79.301 35.659 79.301 79.302c0 31.401-25.546 56.948-56.948 56.948m-56.4154-91.5428c4.997 0 9.048 4.051 9.048 9.048s-4.051 9.048-9.048 9.048-9.048-4.051-9.048-9.048 4.051-9.048 9.048-9.048m65.9959 0c4.997 0 9.048 4.051 9.048 9.048s-4.051 9.048-9.048 9.048-9.048-4.051-9.048-9.048 4.051-9.048 9.048-9.048m-17.5634 40.4491h-29.272c-3.726 0-5.855 0-6.919 1.597-1.597 1.596-2.129 2.661-2.129 4.79 0 11.176 10.644 20.224 23.418 20.224 13.305 0 23.95-7.983 23.95-19.16 0-4.258-3.194-7.451-9.048-7.451m.532 4.79c2.661 0 2.129 1.064 2.129 1.064 0 7.452-7.983 13.306-17.563 13.306s-17.031-6.387-17.031-13.306c0 0 0-1.064 2.661-1.064h31.401" fill="#475e93"/><path d="m172.4408 140.9438c7.936 0 14.37 6.434 14.37 14.37s-6.434 14.37-14.37 14.37-14.37-6.434-14.37-14.37 6.434-14.37 14.37-14.37zm-91.0104 0c7.936 0 14.37 6.434 14.37 14.37s-6.434 14.37-14.37 14.37-14.37-6.434-14.37-14.37 6.434-14.37 14.37-14.37z" fill="#fdcccd"/><path d="m127.2019 207.4719c-6.919 0-12.774 5.854-12.774 12.774v12.773c0 6.919 5.855 12.773 12.774 12.773s12.773-5.322 12.773-12.773v-12.773c0-6.92-5.854-12.774-12.773-12.774" fill="#fff"/></svg>
